!!!ONB: MCCC : IJH0437_02 : Extracted Monophonic Melody
!!!COM: Haydn, Joseph
!!!OPR: String Quartet in D minor
!!!OMV: 2
!!!SCT: Hob.III:83 ; Op.103
!!!ODT: 1803///
**kern
*thru
*k[b-]
*d:
*clefF
*M3/4
4dd
8.dd
16ff
4aa
=1
2a
4f#
=2
4g
8.g
16b-
4dd
=3
2e
4f
=4
4d#
4e
4c#
=5
4d
8.d
16e
4f
=6
4e
4a
4g#
=7
4a
4r
4r
=8
4cc#
8.cc#
16ee
4aa
=9
4dd
8.dd
16ff
4aa
=10
4r
4cc
4cc[
=11
4cc]
4b-
4b-
=12
8a
8cc
8ee-
8cc
8a
8f#
=13
8g
8b-
8dd
8b-
8gg
8dd
=14
8bb-
8r
2cc#
=15
8aa
8r
2dd
=16
8.cc#
16ee
4gg
4ff
=17
2ff
4ee
=18
4dd
8.dd
16ff
4aa
=19
2a
4f#
=20
4g
8.g
16b-
4dd
=21
2e
4f
=22
2e
4f
=23
4e
4g
4f
=24
4e
4d
4c#
=25
4d
4cc#
4dd
=26
4dd#
4ee
4r
=27
4r
4cc#
4dd
=28
4dd#
4ee
4r
=29
4r
4cc#
4dd
=30
4ee
4gg
4ff
=31
4ee
4dd
4cc#
=32
4cc
8.cc
16ff#
4aa
=33
4b-
8.b-
16dd
4gg
=34
4ff
8.ff
16bb
4ddd
=35
2.r
=36
2.r
=37
4r
4cc#
4dd
=38
4dd#
4ee
4r
=39
4r
4ccc#
4ddd
=40
4ddd#
4eee
4fff
=41
2.fff#
=42
4ggg
2ggg#
=43
4aaa
4r
24c
24B
24c#
24d
24e
24f
=44
8g
16a
16b
16cc#
16dd
16ee
16ff
16gg
16aa
16bb
16ccc#
=45
4ddd
4r
4r
==
*-
